_icons/SVG/551-sandile-shiny.svg

<svg xmlns="http://www.w3.org/2000/svg" viewBox="0 0 32 32"><title>551-sandile-shiny</title><polygon points="8.04 31.98 8.457 29.73 6.619 29.73 8.04 31.98" style="fill:#373f3f"/><polygon points="9.863 31.98 9.863 29.528 8.457 29.73 9.863 31.98" style="fill:#373f3f"/><polygon points="8.926 20.915 2.742 26.354 4.731 29.974 6.619 29.73 8.457 29.73 9.863 29.528 9.863 27.137 8.926 20.915" style="fill:#bee758"/><polygon points="5.834 31.98 6.619 29.73 4.731 29.974 5.834 31.98" style="fill:#373f3f"/><path d="M8.04023,20.49323C6.27335,23.53154,6.30589,25.594,7.30991,26.9911,8.913,25.00188,12.19777,23.63469,16,23.63469V19.50377C10.7247,19.45025,8.04023,17.71357,8.04023,20.49323Z" style="fill:#cbeb6b"/><path d="M7.30991,26.9911C8.85622,29.14262,12.72032,29.69946,16,29.72471v-6.09C12.19777,23.63469,8.913,25.00188,7.30991,26.9911Z" style="fill:#9fc9e4"/><path d="M13.89559,5.16142c-2.53479-11.06519-19.03584-2.438-11.534,8.61015-2.65047,4.87416-.79869,7.288,4.8762,7.61253C7.98788,23.072,11.92639,24.57238,16,24.57238V4.51677C14.90758,4.54892,13.89559,4.76212,13.89559,5.16142Z" style="fill:#d9f07d"/><ellipse cx="8.0402" cy="9.30898" rx="5.29816" ry="6.61098" style="fill:#373f3f"/><path d="M13.15741,10.99716,8.73811,12.296,8.04023,15.92A29.01274,29.01274,0,0,1,16,14.06985v-3.537A6.28417,6.28417,0,0,0,13.15741,10.99716Z" style="fill:#373f3f"/><ellipse cx="8.0402" cy="9.30898" rx="3.69914" ry="4.61574" style="fill:#b9bfbe"/><ellipse cx="8.92562" cy="8.17003" rx="1.59414" ry="2.35219" style="fill:#edeeee"/><path d="M9.86335,17.35186c0-.29469,3.03783-.44407,6.13665-.4501v-1.514C12.90118,15.41393,9.86335,16.06587,9.86335,17.35186Z" style="fill:#757f7e"/><path d="M11.73931,16.9006c-2.447,0-4.43076,1.49871-4.43076,3.34738s1.98378,3.34727,4.43076,3.34727A4.38747,4.38747,0,0,0,16,21.11728V19.37867A4.38754,4.38754,0,0,0,11.73931,16.9006Z" style="fill:#e6f490"/><ellipse cx="11.60086" cy="21.23801" rx="1.73751" ry="0.99006" style="fill:#373f3f"/><polygon points="23.96 31.98 23.543 29.73 25.381 29.73 23.96 31.98" style="fill:#2b3332"/><polygon points="22.137 31.98 22.137 29.528 23.543 29.73 22.137 31.98" style="fill:#2b3332"/><polygon points="23.074 20.915 29.258 26.354 27.269 29.974 25.381 29.73 23.543 29.73 22.137 29.528 22.137 27.137 23.074 20.915" style="fill:#b1e346"/><polygon points="26.166 31.98 25.381 29.73 27.269 29.974 26.166 31.98" style="fill:#2b3332"/><path d="M23.95977,20.49323c1.76688,3.03831,1.73434,5.10076.73032,6.49787C23.087,25.00188,19.80223,23.63469,16,23.63469V19.50377C21.2753,19.45025,23.95977,17.71357,23.95977,20.49323Z" style="fill:#bee758"/><path d="M24.69009,26.9911C23.14378,29.14262,19.27968,29.69946,16,29.72471v-6.09C19.80223,23.63469,23.087,25.00188,24.69009,26.9911Z" style="fill:#8ec0e0"/><path d="M18.10441,5.16142c2.53479-11.06519,19.03584-2.438,11.534,8.61015,2.65047,4.87416.79869,7.288-4.8762,7.61253C24.01212,23.072,20.07361,24.57238,16,24.57238V4.51677C17.09242,4.54892,18.10441,4.76212,18.10441,5.16142Z" style="fill:#cbeb6b"/><ellipse cx="23.9598" cy="9.30898" rx="5.29816" ry="6.61098" style="fill:#2b3332"/><path d="M18.84259,10.99716l4.4193,1.29882.69788,3.624A29.01274,29.01274,0,0,0,16,14.06985v-3.537A6.28417,6.28417,0,0,1,18.84259,10.99716Z" style="fill:#2b3332"/><ellipse cx="23.9598" cy="9.30898" rx="3.69914" ry="4.61574" style="fill:#abb2b1"/><ellipse cx="23.07438" cy="8.17003" rx="1.59414" ry="2.35219" style="fill:#e3e5e5"/><path d="M22.13665,17.35186c0-.29469-3.03783-.44407-6.13665-.4501v-1.514C19.09882,15.41393,22.13665,16.06587,22.13665,17.35186Z" style="fill:#687271"/><path d="M20.26069,16.9006c2.447,0,4.43076,1.49871,4.43076,3.34738s-1.98378,3.34727-4.43076,3.34727A4.38747,4.38747,0,0,1,16,21.11728V19.37867A4.38754,4.38754,0,0,1,20.26069,16.9006Z" style="fill:#d9f07d"/><ellipse cx="20.39914" cy="21.23801" rx="1.73751" ry="0.99006" style="fill:#2b3332"/></svg>

<svg xmlns="http://www.w3.org/2000/svg" viewBox="0 0 32 32"><path fill="#373f3f" d="M8.04 31.98l.417-2.25H6.619l1.421 2.25zm1.823 0v-2.452l-1.406.202 1.406 2.25z"/><path fill="#bee758" d="M8.926 20.915l-6.184 5.439 1.989 3.62 1.888-.244h1.838l1.406-.202v-2.391l-.937-6.222z"/><path fill="#373f3f" d="M5.834 31.98l.785-2.25-1.888.244 1.103 2.006z"/><path d="M8.04 20.493c-1.767 3.039-1.734 5.101-.73 6.498 1.603-1.99 4.888-3.356 8.69-3.356v-4.131c-5.275-.054-7.96-1.79-7.96.99z" fill="#cbeb6b"/><path d="M7.31 26.991c1.546 2.152 5.41 2.708 8.69 2.734v-6.09c-3.802 0-7.087 1.367-8.69 3.356z" fill="#9fc9e4"/><path d="M13.896 5.161C11.36-5.904-5.14 2.723 2.362 13.771c-2.65 4.875-.8 7.289 4.876 7.613.75 1.688 4.688 3.188 8.762 3.188V4.517c-1.092.032-2.104.245-2.104.644z" fill="#d9f07d"/><ellipse cx="8.04" cy="9.309" rx="5.298" ry="6.611" fill="#373f3f"/><path d="M13.157 10.997l-4.419 1.299-.698 3.624A29.013 29.013 0 0116 14.07v-3.537a6.284 6.284 0 00-2.843.464z" fill="#373f3f"/><ellipse cx="8.04" cy="9.309" rx="3.699" ry="4.616" fill="#b9bfbe"/><ellipse cx="8.926" cy="8.17" rx="1.594" ry="2.352" fill="#edeeee"/><path d="M9.863 17.352c0-.295 3.038-.444 6.137-.45v-1.514c-3.099.026-6.137.678-6.137 1.964z" fill="#757f7e"/><path d="M11.74 16.9c-2.448 0-4.431 1.5-4.431 3.348s1.983 3.347 4.43 3.347A4.387 4.387 0 0016 21.117V19.38a4.388 4.388 0 00-4.26-2.478z" fill="#e6f490"/><ellipse cx="11.601" cy="21.238" rx="1.738" ry=".99" fill="#373f3f"/><path fill="#2b3332" d="M23.96 31.98l-.417-2.25h1.838l-1.421 2.25zm-1.823 0v-2.452l1.406.202-1.406 2.25z"/><path fill="#b1e346" d="M23.074 20.915l6.184 5.439-1.989 3.62-1.888-.244h-1.838l-1.406-.202v-2.391l.937-6.222z"/><path fill="#2b3332" d="M26.166 31.98l-.785-2.25 1.888.244-1.103 2.006z"/><path d="M23.96 20.493c1.767 3.039 1.734 5.101.73 6.498-1.603-1.99-4.888-3.356-8.69-3.356v-4.131c5.275-.054 7.96-1.79 7.96.99z" fill="#bee758"/><path d="M24.69 26.991c-1.546 2.152-5.41 2.708-8.69 2.734v-6.09c3.802 0 7.087 1.367 8.69 3.356z" fill="#8ec0e0"/><path d="M18.104 5.161c2.535-11.065 19.036-2.438 11.534 8.61 2.65 4.875.8 7.289-4.876 7.613-.75 1.688-4.688 3.188-8.762 3.188V4.517c1.092.032 2.104.245 2.104.644z" fill="#cbeb6b"/><ellipse cx="23.96" cy="9.309" rx="5.298" ry="6.611" fill="#2b3332"/><path d="M18.843 10.997l4.419 1.299.698 3.624A29.013 29.013 0 0016 14.07v-3.537a6.284 6.284 0 012.843.464z" fill="#2b3332"/><ellipse cx="23.96" cy="9.309" rx="3.699" ry="4.616" fill="#abb2b1"/><ellipse cx="23.074" cy="8.17" rx="1.594" ry="2.352" fill="#e3e5e5"/><path d="M22.137 17.352c0-.295-3.038-.444-6.137-.45v-1.514c3.099.026 6.137.678 6.137 1.964z" fill="#687271"/><path d="M20.26 16.9c2.448 0 4.431 1.5 4.431 3.348s-1.983 3.347-4.43 3.347A4.387 4.387 0 0116 21.117V19.38a4.388 4.388 0 014.26-2.478z" fill="#d9f07d"/><ellipse cx="20.399" cy="21.238" rx="1.738" ry=".99" fill="#2b3332"/></svg>
